X:A 59440
T:A 59440
M:3/4
L:1/16
K:F
K:treble
 _C2F2| F,,4 c''4 ^A2F2| G4 B4 c2 c2| B4 c4 c2 A2| G4 z4|
|: G2 A2 :| B4 d2 f2 e2 d2|: c4 A4 F4| c4 d4 d2> B2| A8:|